svgs/wordweb.svg

<svg width="192" height="192" viewBox="0 0 192 192" fill="none" xmlns="http://www.w3.org/2000/svg">
<circle cx="116" cy="76" r="54" stroke="black" stroke-width="12"/>
<path d="M86.5 121.5L41 167C36.5817 171.418 29.4183 171.418 25 167V167C20.5817 162.582 20.5817 155.418 25 151L69.5 106.5" stroke="black" stroke-width="12" stroke-linecap="round" stroke-linejoin="round"/>
<path d="M92 62L104 94L116 62L128 94L140 62" stroke="black" stroke-width="12" stroke-linecap="round" stroke-linejoin="round"/>
</svg>

<svg width="192" height="192" viewBox="0 0 192 192" fill="none" xmlns="http://www.w3.org/2000/svg"><circle cx="116" cy="76" r="54" stroke="#000" stroke-width="12"/><path d="M86.5 121.5 41 167c-4.418 4.418-11.582 4.418-16 0v0c-4.418-4.418-4.418-11.582 0-16l44.5-44.5M92 62l12 32 12-32 12 32 12-32" stroke="#000" stroke-width="12" stroke-linecap="round" stroke-linejoin="round"/></svg>
